X: 26807
T: Millers O' Cowdenbeath, The
R: jig
M: 6/8
K: Amixolydian
|:cAA AAA|cAA BAA|cAA AAA|BGG Bcd|
cAA AAA|cAA BAA|cee dcB|cAA A2a:|
|:cee ecA|fed cBA|cee ecA|BGG Bcd|
cee ecA|fed cBA|cee dcB|cAA A2a:|
|:AAA cAA|GGG AAA|AAA cAA|BGG Bcd|
cAA AAA|GGG AAA|cee dcB|cAA A2a:|
|:fed cBA|faa ecA|fed cBA|BGG Bcd|
fed cBA|faa ecA|cee dcB|cAA A2a:|

